X:1
T:After You’ve Gone
C:Turner Layton / Henry Creamer
R:(Swing)
M:4/4
L:1/8
K:Bb
"Ebmaj7"GB cd-d4| "Ebm7"zc dc d c3| "Bbmaj7"DF GA-A4| "G7"zG AG A G3|
"C7"G d2 d-d4| "F7"G c2 c-c4| "Bbmaj7" z F GF AF GF| B D2 F- "Bb7"F4|
"Ebmaj7"GB cd-d4| "Ebm7"zcdc d c3| "Bbmaj7"DF GA-A4| "G7"zG AG A G3|
"Cm7"e4 "G7"d4| "Cm7"c^F Gd-"Ebm7"d2 c2| "Bbmaj7"z^c dB "D7"=c^B cA| "Gm7"=B^C DA- "A7"A2 G2|
"Bbmaj7"GB cd-d4| "F7"zE FA c2 d2| "Bbmaj7"(dB-B6-)| B2z2 "(Bb7)"z4|]
